X: 26802
T: Miller's Maggot, The
R: jig
M: 6/8
K: Gmajor
|:G2A ~B2A|~B2A BGE|G2A ~B2A|Bde dBA|
G2A ~B2A|~B2A BGE|gfe dBA|1 Bde dBA:|2 Bde dBd||
|:e2f g2e|d2B BAG|e2f ~g3|~a3 bag|
e2f g2e|d2B BAG|A2B cBA|1 Bde dBd:|2 Bde dBA||

